cartflows/admin-core/assets/images/plugins/suretriggers/trusted-brands/WooCommerce_Logo.svg

<svg width="121" height="24" viewBox="0 0 121 24" fill="none" xmlns="http://www.w3.org/2000/svg">
<g clip-path="url(#clip0_4393_128289)">
<path fill-rule="evenodd" clip-rule="evenodd" d="M37.3592 0H4.27245C2.17856 0 0.483503 1.6819 0.500121 3.72305V16.1332C0.500121 18.1906 2.19518 19.8562 4.28907 19.8562H19.96L27.1225 23.7752L25.4939 19.8562H37.3592C39.4532 19.8562 41.1481 18.1906 41.1481 16.1332V3.72305C41.1481 1.66557 39.4532 0 37.3592 0ZM3.57456 2.87393C3.10925 2.90659 2.76026 3.06988 2.52761 3.38013C2.29496 3.67406 2.21187 4.04962 2.26172 4.47418C3.24219 10.5977 4.15619 14.7289 5.00372 16.868C5.33609 17.6518 5.7183 18.0274 6.167 17.9948C6.86495 17.9457 7.69586 16.9987 8.67633 15.1535C9.19149 14.1083 9.98918 12.5408 11.0694 10.4506C11.9667 13.5368 13.1964 15.8557 14.742 17.4069C15.1741 17.8478 15.6228 18.0437 16.0548 18.0111C16.4371 17.9784 16.7361 17.7824 16.9355 17.4232C17.1017 17.1129 17.1682 16.7537 17.135 16.3455C17.0353 14.8595 17.1849 12.7857 17.6003 10.1241C18.0323 7.38078 18.5641 5.40495 19.2122 4.22925C19.3452 3.98431 19.395 3.73937 19.3784 3.44545C19.3452 3.06987 19.179 2.75962 18.8633 2.51469C18.5476 2.26975 18.1985 2.15545 17.8163 2.1881C17.3344 2.22076 16.9688 2.44937 16.7195 2.90659C15.6892 4.75178 14.958 7.74002 14.526 11.8876C13.8944 10.32 13.3626 8.47483 12.9472 6.30305C12.7644 5.33964 12.3158 4.88241 11.5845 4.93141C11.086 4.96406 10.6705 5.29064 10.3382 5.91115L6.69878 12.7204C6.10052 10.3527 5.5355 7.46243 5.02034 4.04962C4.90401 3.20052 4.42208 2.80861 3.57456 2.87393ZM35.5978 4.04968C36.7777 4.29462 37.6585 4.91513 38.2567 5.94386C38.7885 6.82564 39.0543 7.88704 39.0543 9.16071C39.0543 10.8426 38.6223 12.3775 37.7581 13.7818C36.761 15.4148 35.4648 16.2312 33.8529 16.2312C33.5704 16.2312 33.2713 16.1985 32.9554 16.1332C31.7756 15.8883 30.8948 15.2679 30.2965 14.2391C29.7648 13.341 29.4989 12.2633 29.4989 11.0059C29.4989 9.324 29.931 7.78905 30.7951 6.40108C31.8089 4.76816 33.1051 3.9517 34.7004 3.9517C34.9829 3.9517 35.2821 3.98437 35.5978 4.04968ZM34.8999 12.8837C35.5147 12.3449 35.9302 11.5447 36.1628 10.467C36.2293 10.0915 36.2791 9.68324 36.2791 9.25868C36.2791 8.78514 36.1794 8.27894 35.98 7.77272C35.7307 7.13589 35.3983 6.79298 34.9995 6.71133C34.4013 6.59703 33.8196 6.92361 33.2713 7.72374C32.8226 8.34425 32.54 8.99741 32.3905 9.66691C32.3073 10.0425 32.2741 10.4507 32.2741 10.859C32.2741 11.3325 32.3738 11.8387 32.5732 12.3449C32.8226 12.9817 33.1549 13.3246 33.5537 13.4063C33.9692 13.4879 34.4178 13.3083 34.8999 12.8837ZM27.8371 5.94386C27.2388 4.91513 26.3414 4.29462 25.1782 4.04968C24.8623 3.98437 24.5633 3.9517 24.2807 3.9517C22.6855 3.9517 21.3892 4.76816 20.3755 6.40108C19.5113 7.78905 19.0793 9.324 19.0793 11.0059C19.0793 12.2633 19.3452 13.341 19.8769 14.2391C20.4752 15.2679 21.356 15.8883 22.5358 16.1332C22.8515 16.1985 23.1507 16.2312 23.4333 16.2312C25.0452 16.2312 26.3414 15.4148 27.3385 13.7818C28.2027 12.3775 28.6347 10.8426 28.6347 9.16071C28.6347 7.88704 28.3688 6.82564 27.8371 5.94386ZM25.7431 10.467C25.5105 11.5447 25.095 12.3449 24.4801 12.8837C23.9982 13.3083 23.5496 13.4879 23.1341 13.4063C22.7353 13.3246 22.4029 12.9817 22.1536 12.3449C21.9542 11.8387 21.8545 11.3325 21.8545 10.859C21.8545 10.4507 21.8877 10.0425 21.9709 9.66691C22.1204 8.99741 22.4029 8.34425 22.8515 7.72374C23.4 6.92361 23.9817 6.59703 24.5799 6.71133C24.9787 6.79298 25.3111 7.13589 25.5604 7.77272C25.7598 8.27894 25.8595 8.78514 25.8595 9.25868C25.8595 9.68324 25.8263 10.0915 25.7431 10.467Z" fill="#4B5563"/>
<path d="M45.3526 5.79629C44.2391 6.87401 43.6907 8.24565 43.6907 9.91123C43.6907 11.6911 44.2391 13.1444 45.336 14.2385C46.4328 15.3326 47.862 15.8877 49.6401 15.8877C50.1552 15.8877 50.7369 15.8061 51.3684 15.6264V12.9811C50.7868 13.1444 50.2882 13.2261 49.8561 13.2261C48.9753 13.2261 48.2774 12.9321 47.7456 12.3606C47.2139 11.7727 46.9479 10.989 46.9479 9.99287C46.9479 9.06211 47.2139 8.29464 47.729 7.70679C48.2607 7.10262 48.9088 6.80869 49.7066 6.80869C50.2217 6.80869 50.7701 6.89033 51.3684 7.05362V4.4083C50.82 4.26134 50.2051 4.19602 49.5569 4.19602C47.862 4.17969 46.466 4.71856 45.3526 5.79629ZM56.8856 4.17969C55.3568 4.17969 54.1603 4.6859 53.296 5.68197C52.4319 6.67806 52.0165 8.08237 52.0165 9.87857C52.0165 11.8218 52.4485 13.3077 53.296 14.3364C54.1436 15.3652 55.39 15.8877 57.0186 15.8877C58.5973 15.8877 59.8103 15.3652 60.6579 14.3364C61.5054 13.3077 61.9375 11.8544 61.9375 9.99287C61.9375 8.13135 61.5054 6.69439 60.6413 5.68197C59.7605 4.6859 58.5141 4.17969 56.8856 4.17969ZM58.1984 12.6708C57.8993 13.1281 57.4506 13.3567 56.8856 13.3567C56.3538 13.3567 55.955 13.1281 55.6725 12.6708C55.39 12.2136 55.257 11.2992 55.257 9.91123C55.257 7.77211 55.8054 6.71071 56.9189 6.71071C58.0821 6.71071 58.6803 7.78844 58.6803 9.96022C58.6638 11.2992 58.4976 12.2136 58.1984 12.6708ZM70.1469 4.48994L69.5486 6.98831C69.3991 7.62515 69.2496 8.27831 69.1166 8.94781L68.7842 10.6787C68.4685 8.94781 68.0364 6.89033 67.488 4.48994H63.6326L62.1868 15.6101H65.0783L65.8594 7.95173L67.837 15.6101H69.8977L71.7921 7.96806L72.6064 15.6101H75.6309L74.102 4.48994H70.1469ZM83.9898 4.48994L83.3916 6.98831C83.242 7.62515 83.0925 8.27831 82.9595 8.94781L82.6271 10.6787C82.3114 8.94781 81.8793 6.89033 81.3309 4.48994H77.4755L76.0298 15.6101H78.9213L79.7023 7.95173L81.6799 15.6101H83.7406L85.6184 7.96806L86.4327 15.6101H89.4572L87.9284 4.48994H83.9898ZM93.3957 11.2176H96.1045V8.91515H93.3957V6.874H96.5199V4.50627H90.338V15.6264H96.5366V13.2587H93.3957V11.2176ZM105.145 9.45401C105.461 8.94781 105.627 8.42528 105.627 7.88641C105.627 6.84135 105.211 6.00856 104.38 5.40438C103.549 4.8002 102.403 4.48994 100.974 4.48994H97.4173V15.6101H100.475V10.5481H100.525L103.001 15.6101H106.225L103.782 10.597C104.364 10.3358 104.829 9.96021 105.145 9.45401ZM100.458 9.27439V6.62907C101.19 6.6454 101.705 6.7597 102.021 6.98831C102.336 7.21692 102.486 7.57616 102.486 8.09869C102.486 8.86616 101.805 9.25807 100.458 9.27439ZM107.421 5.79629C106.308 6.87401 105.76 8.24565 105.76 9.91123C105.76 11.6911 106.308 13.1444 107.405 14.2385C108.502 15.3326 109.93 15.8877 111.709 15.8877C112.224 15.8877 112.806 15.8061 113.437 15.6264V12.9811C112.856 13.1444 112.357 13.2261 111.925 13.2261C111.044 13.2261 110.347 12.9321 109.815 12.3606C109.283 11.7727 109.017 10.989 109.017 9.99287C109.017 9.06211 109.283 8.29464 109.798 7.70679C110.33 7.10262 110.978 6.80869 111.775 6.80869C112.29 6.80869 112.839 6.89033 113.437 7.05362V4.4083C112.889 4.26134 112.274 4.19602 111.626 4.19602C109.947 4.17969 108.535 4.71856 107.421 5.79629ZM117.343 13.2261V11.2012H120.051V8.89882H117.343V6.85768H120.483V4.48994H114.301V15.6101H120.5V13.2424H117.343V13.2261Z" fill="#4B5563"/>
</g>
<defs>
<clipPath id="clip0_4393_128289">
<rect width="120" height="24" fill="white" transform="translate(0.5)"/>
</clipPath>
</defs>
</svg>

<svg width="121" height="24" fill="none" xmlns="http://www.w3.org/2000/svg"><g clip-path="url(#a)" fill="#4B5563"><path fill-rule="evenodd" clip-rule="evenodd" d="M37.36 0H4.271C2.18 0 .484 1.682.5 3.723v12.41c0 2.058 1.695 3.723 3.79 3.723h15.67l7.162 3.92-1.628-3.92h11.865c2.094 0 3.79-1.665 3.79-3.723V3.723c0-2.057-1.696-3.723-3.79-3.723ZM3.574 2.874c-.466.033-.815.196-1.047.506-.233.294-.316.67-.266 1.094.98 6.124 1.894 10.255 2.742 12.394.332.784.714 1.16 1.163 1.127.698-.05 1.529-.996 2.51-2.842a303.715 303.715 0 0 1 2.392-4.702c.898 3.086 2.127 5.405 3.673 6.956.432.44.88.637 1.313.604.382-.033.681-.229.88-.588.167-.31.233-.67.2-1.077-.1-1.486.05-3.56.465-6.222.432-2.743.964-4.72 1.612-5.895.133-.245.183-.49.166-.784a1.273 1.273 0 0 0-.515-.93 1.461 1.461 0 0 0-1.047-.327c-.482.033-.847.261-1.096.719-1.03 1.845-1.762 4.833-2.194 8.98-.632-1.567-1.163-3.412-1.579-5.584-.183-.963-.631-1.42-1.362-1.372-.499.033-.915.36-1.247.98l-3.64 6.81C6.102 10.352 5.536 7.461 5.02 4.05c-.116-.85-.598-1.241-1.445-1.176ZM35.598 4.05c1.18.245 2.06.865 2.659 1.894.532.882.797 1.943.797 3.217a8.635 8.635 0 0 1-1.296 4.62c-.997 1.634-2.293 2.45-3.905 2.45a4.44 4.44 0 0 1-.898-.098c-1.18-.245-2.06-.865-2.658-1.894-.532-.898-.798-1.976-.798-3.233 0-1.682.432-3.217 1.296-4.605 1.014-1.633 2.31-2.45 3.905-2.45.283 0 .582.033.898.099Zm-.698 8.834c.615-.54 1.03-1.34 1.263-2.417.066-.376.116-.784.116-1.208 0-.474-.1-.98-.299-1.486-.25-.637-.582-.98-.98-1.062-.599-.114-1.18.213-1.729 1.013a5.234 5.234 0 0 0-.88 1.943 5.576 5.576 0 0 0-.117 1.192c0 .473.1.98.3 1.486.249.637.58.98.98 1.061.415.082.864-.098 1.346-.522Zm-7.063-6.94c-.598-1.029-1.496-1.65-2.659-1.894a4.438 4.438 0 0 0-.897-.098c-1.595 0-2.892.816-3.905 2.45-.865 1.387-1.297 2.922-1.297 4.604 0 1.257.266 2.335.798 3.233.598 1.029 1.479 1.65 2.659 1.894.316.066.615.098.897.098 1.612 0 2.908-.816 3.905-2.45a8.635 8.635 0 0 0 1.297-4.62c0-1.274-.266-2.335-.798-3.217Zm-2.094 4.523c-.232 1.078-.648 1.878-1.263 2.417-.482.424-.93.604-1.346.522-.399-.081-.731-.424-.98-1.061-.2-.506-.3-1.013-.3-1.486 0-.408.034-.816.117-1.192.15-.67.432-1.323.88-1.943.549-.8 1.13-1.127 1.729-1.013.399.082.731.425.98 1.062.2.506.3 1.012.3 1.486 0 .424-.034.832-.117 1.208Z"/><path d="M45.353 5.796c-1.114 1.078-1.662 2.45-1.662 4.115 0 1.78.548 3.233 1.645 4.328 1.097 1.094 2.526 1.649 4.304 1.649a6.36 6.36 0 0 0 1.728-.262v-2.645c-.581.163-1.08.245-1.512.245-.88 0-1.579-.294-2.11-.865-.532-.588-.798-1.372-.798-2.368 0-.93.266-1.698.781-2.286.532-.604 1.18-.898 1.978-.898.515 0 1.063.081 1.661.245V4.408a7.059 7.059 0 0 0-1.811-.212c-1.695-.016-3.091.523-4.204 1.6ZM56.886 4.18c-1.53 0-2.726.506-3.59 1.502-.864.996-1.28 2.4-1.28 4.197 0 1.943.433 3.429 1.28 4.457.848 1.03 2.094 1.552 3.723 1.552 1.578 0 2.791-.523 3.639-1.552.847-1.028 1.28-2.482 1.28-4.343 0-1.862-.433-3.299-1.297-4.311-.88-.996-2.127-1.502-3.755-1.502Zm1.312 8.49c-.299.458-.747.687-1.312.687-.532 0-.931-.229-1.214-.686-.282-.457-.415-1.372-.415-2.76 0-2.139.548-3.2 1.662-3.2 1.163 0 1.761 1.077 1.761 3.25-.016 1.338-.182 2.253-.482 2.71Zm11.949-8.18-.598 2.498c-.15.637-.3 1.29-.432 1.96l-.333 1.73c-.316-1.73-.748-3.788-1.296-6.188h-3.855l-1.446 11.12h2.891l.781-7.658 1.978 7.658h2.06l1.895-7.642.814 7.642h3.025L74.102 4.49h-3.955Zm13.843 0-.598 2.498c-.15.637-.3 1.29-.432 1.96l-.333 1.73c-.316-1.73-.748-3.788-1.296-6.188h-3.856L76.03 15.61h2.891l.781-7.658 1.978 7.658h2.06l1.878-7.642.815 7.642h3.024L87.928 4.49H83.99Zm9.406 6.728h2.709V8.915h-2.71V6.874h3.125V4.506h-6.182v11.12h6.199V13.26h-3.141v-2.041Zm11.749-1.764c.316-.506.482-1.029.482-1.568 0-1.045-.416-1.877-1.247-2.482-.831-.604-1.977-.914-3.406-.914h-3.557v11.12h3.058v-5.062h.05l2.476 5.062h3.224l-2.443-5.013c.582-.261 1.047-.637 1.363-1.143Zm-4.687-.18V6.63c.732.016 1.247.13 1.563.36.315.228.465.587.465 1.11 0 .767-.681 1.16-2.028 1.175Zm6.963-3.478c-1.113 1.078-1.661 2.45-1.661 4.115 0 1.78.548 3.233 1.645 4.328 1.097 1.094 2.525 1.649 4.304 1.649.515 0 1.097-.082 1.728-.262v-2.645c-.581.163-1.08.245-1.512.245-.881 0-1.578-.294-2.11-.865-.532-.588-.798-1.372-.798-2.368 0-.93.266-1.698.781-2.286.532-.604 1.18-.898 1.977-.898.515 0 1.064.081 1.662.245V4.408a7.054 7.054 0 0 0-1.811-.212c-1.679-.016-3.091.523-4.205 1.6Zm9.922 7.43v-2.025h2.708V8.9h-2.708V6.858h3.14V4.49h-6.182v11.12h6.199v-2.368h-3.157v-.016Z"/></g><defs><clipPath id="a"><path fill="#fff" transform="translate(.5)" d="M0 0h120v24H0z"/></clipPath></defs></svg>
